rospo-newyear-dark/symbolic/devices/input-mouse-symbolic.svg

<svg height="16" width="16" xmlns="http://www.w3.org/2000/svg"><path d="m8 0c-2.77 0-5 2.45-5 5.5v5c0 3.05 2.23 5.5 5 5.5s5-2.45 5-5.5v-5c0-3.05-2.23-5.5-5-5.5zm0 3c .55 0 1 .45 1 1v2c0 .55-.45 1-1 1s-1-.45-1-1v-2c0-.55.45-1 1-1z" fill="#d3dae3"/></svg>

<svg xmlns="http://www.w3.org/2000/svg" width="16" height="16" version="1.1">
 <path style="fill:#d3dae3" d="M 8,0 C 5.23,0 3,2.45 3,5.5 V 10.5 C 3,13.55 5.23,16 8,16 10.77,16 13,13.55 13,10.5 V 5.5 C 13,2.45 10.77,0 8,0 Z M 8,3 C 8.55,3 9,3.45 9,4 V 6 C 9,6.55 8.55,7 8,7 7.45,7 7,6.55 7,6 V 4 C 7,3.45 7.45,3 8,3 Z"/>
</svg>
